static/img/kroki/575aa5b035e75cb39fa38956ef991b1a.svg

<?xml version="1.0" encoding="us-ascii" standalone="no"?><svg xmlns="http://www.w3.org/2000/svg" xmlns:xlink="http://www.w3.org/1999/xlink" contentStyleType="text/css" height="374px" preserveAspectRatio="none" style="width:171px;height:374px;" version="1.1" viewBox="0 0 171 374" width="171px" zoomAndPan="magnify"><defs/><g><!--class gcp_resource--><g id="elem_gcp_resource"><rect codeLine="23" fill="#3D176E" height="39.7891" id="gcp_resource" rx="2.5" ry="2.5" style="stroke:#000D19;stroke-width:0.5;" width="150" x="10.5" y="167.79"/><ellipse cx="25.5" cy="187.6845" fill="#ADD1B2" rx="11" ry="11" style="stroke:#181818;stroke-width:1.0;"/><path d="M28.4688,193.3252 Q27.8906,193.622 27.25,193.7627 Q26.6094,193.9189 25.9063,193.9189 Q23.4063,193.9189 22.0781,192.2783 Q20.7656,190.622 20.7656,187.497 Q20.7656,184.372 22.0781,182.7158 Q23.4063,181.0595 25.9063,181.0595 Q26.6094,181.0595 27.25,181.2158 Q27.9063,181.372 28.4688,181.6689 L28.4688,184.3877 Q27.8438,183.8095 27.25,183.5439 Q26.6563,183.2627 26.0313,183.2627 Q24.6875,183.2627 24,184.3408 Q23.3125,185.4033 23.3125,187.497 Q23.3125,189.5908 24,190.6689 Q24.6875,191.7314 26.0313,191.7314 Q26.6563,191.7314 27.25,191.4658 Q27.8438,191.1845 28.4688,190.6064 L28.4688,193.3252 Z " fill="#000000"/><text fill="#D9B8FF" font-family="Helvetica" font-size="17" lengthAdjust="spacing" textLength="108" x="44.5" y="193.5698">gcp_resource</text></g><!--class gcp_ssl_policy--><g id="elem_gcp_ssl_policy"><rect codeLine="26" fill="#3D176E" height="39.7891" id="gcp_ssl_policy" rx="2.5" ry="2.5" style="stroke:#000D19;stroke-width:0.5;" width="157" x="7" y="328.58"/><ellipse cx="22" cy="348.4745" fill="#ADD1B2" rx="11" ry="11" style="stroke:#181818;stroke-width:1.0;"/><path d="M24.9688,354.1152 Q24.3906,354.412 23.75,354.5527 Q23.1094,354.7089 22.4063,354.7089 Q19.9063,354.7089 18.5781,353.0683 Q17.2656,351.412 17.2656,348.287 Q17.2656,345.162 18.5781,343.5058 Q19.9063,341.8495 22.4063,341.8495 Q23.1094,341.8495 23.75,342.0058 Q24.4063,342.162 24.9688,342.4589 L24.9688,345.1777 Q24.3438,344.5995 23.75,344.3339 Q23.1563,344.0527 22.5313,344.0527 Q21.1875,344.0527 20.5,345.1308 Q19.8125,346.1933 19.8125,348.287 Q19.8125,350.3808 20.5,351.4589 Q21.1875,352.5214 22.5313,352.5214 Q23.1563,352.5214 23.75,352.2558 Q24.3438,351.9745 24.9688,351.3964 L24.9688,354.1152 Z " fill="#000000"/><text fill="#D9B8FF" font-family="Helvetica" font-size="17" lengthAdjust="spacing" textLength="115" x="41" y="354.3598">gcp_ssl_policy</text></g><!--class resource--><g id="elem_resource"><rect codeLine="29" fill="#3D176E" height="39.7891" id="resource" rx="2.5" ry="2.5" style="stroke:#000D19;stroke-width:0.5;" width="113" x="29" y="7"/><ellipse cx="44" cy="26.8945" fill="#ADD1B2" rx="11" ry="11" style="stroke:#181818;stroke-width:1.0;"/><path d="M46.9688,32.5352 Q46.3906,32.832 45.75,32.9727 Q45.1094,33.1289 44.4063,33.1289 Q41.9063,33.1289 40.5781,31.4883 Q39.2656,29.832 39.2656,26.707 Q39.2656,23.582 40.5781,21.9258 Q41.9063,20.2695 44.4063,20.2695 Q45.1094,20.2695 45.75,20.4258 Q46.4063,20.582 46.9688,20.8789 L46.9688,23.5977 Q46.3438,23.0195 45.75,22.7539 Q45.1563,22.4727 44.5313,22.4727 Q43.1875,22.4727 42.5,23.5508 Q41.8125,24.6133 41.8125,26.707 Q41.8125,28.8008 42.5,29.8789 Q43.1875,30.9414 44.5313,30.9414 Q45.1563,30.9414 45.75,30.6758 Q46.3438,30.3945 46.9688,29.8164 L46.9688,32.5352 Z " fill="#000000"/><text fill="#D9B8FF" font-family="Helvetica" font-size="17" lengthAdjust="spacing" textLength="71" x="63" y="32.7798">resource</text></g><!--reverse link resource to gcp_resource--><g id="link_resource_gcp_resource"><path codeLine="32" d="M85.5,65.05 C85.5,95.57 85.5,136.9 85.5,167.46 " fill="none" id="resource-backto-gcp_resource" style="stroke:#FFAF37;stroke-width:2.0;"/><polygon fill="none" points="85.5,47.05,79.5,65.05,91.5,65.05,85.5,47.05" style="stroke:#FFAF37;stroke-width:2.0;"/></g><!--reverse link gcp_resource to gcp_ssl_policy--><g id="link_gcp_resource_gcp_ssl_policy"><path codeLine="33" d="M85.5,225.84 C85.5,256.36 85.5,297.69 85.5,328.25 " fill="none" id="gcp_resource-backto-gcp_ssl_policy" style="stroke:#FFAF37;stroke-width:2.0;"/><polygon fill="none" points="85.5,207.84,79.5,225.84,91.5,225.84,85.5,207.84" style="stroke:#FFAF37;stroke-width:2.0;"/></g><!--SRC=[XP3DJiCm48JlVWfBFKTAg22DnALKGd2f4ELUEVOwiUBOqTgX2Z_l3g7GEWbjZxlpQNPcIoM0GjtuZjPGvu2Ek4gPXY6hwHBHxbPMMwGpAPcSfsFntXf_4LYp6kW3w5VmYhCnyL8gNXbmZbu5qXtZLO6sDM9lxv4Pzos1yG6rqiovfVUeyjP344Pa-KBACJasdSr5ajx01BCe07-HE8v5aesHYwVEzZuG6_K6D0cVjhOU9Z4d9tweiobx8WWvAVgddypun8HGfg3NmUvvdmaDu62_APcmkvwMJBlmZFE0O7tNm6hI2hA5aEc_yECfcF3-TRJWpHR1sHOvq7T2FeEzSthRMAru5of3-Z3TVaHHDB0Z0- -ZVhGbNm00]--></g></svg>

<svg xmlns="http://www.w3.org/2000/svg" width="171" height="374" viewBox="0 0 171 374"><rect width="150" height="39.789" x="10.5" y="167.79" fill="#3D176E" rx="2.5" ry="2.5" style="stroke:#000d19;stroke-width:.5"/><circle cx="25.5" cy="187.685" r="11" fill="#ADD1B2" style="stroke:#181818;stroke-width:1"/><path d="M28.469 193.325q-.578.297-1.219.438-.64.156-1.344.156-2.5 0-3.828-1.64-1.312-1.657-1.312-4.782t1.312-4.781q1.328-1.656 3.828-1.656.703 0 1.344.156.656.156 1.219.453v2.719q-.625-.578-1.219-.844-.594-.281-1.219-.281-1.343 0-2.031 1.078-.687 1.062-.687 3.156t.687 3.172q.688 1.062 2.031 1.062.625 0 1.219-.265.594-.281 1.219-.86z"/><text x="44.5" y="193.57" fill="#D9B8FF" font-family="Helvetica" font-size="17" textLength="108">gcp_resource</text><rect width="157" height="39.789" x="7" y="328.58" fill="#3D176E" rx="2.5" ry="2.5" style="stroke:#000d19;stroke-width:.5"/><circle cx="22" cy="348.474" r="11" fill="#ADD1B2" style="stroke:#181818;stroke-width:1"/><path d="M24.969 354.115q-.578.297-1.219.438-.64.156-1.344.156-2.5 0-3.828-1.64-1.312-1.657-1.312-4.782t1.312-4.781q1.328-1.656 3.828-1.656.703 0 1.344.156.656.156 1.219.453v2.719q-.625-.579-1.219-.844-.594-.281-1.219-.281-1.343 0-2.031 1.078-.687 1.062-.687 3.156t.687 3.172q.688 1.062 2.031 1.062.625 0 1.219-.265.594-.281 1.219-.86z"/><text x="41" y="354.36" fill="#D9B8FF" font-family="Helvetica" font-size="17" textLength="115">gcp_ssl_policy</text><rect width="113" height="39.789" x="29" y="7" fill="#3D176E" rx="2.5" ry="2.5" style="stroke:#000d19;stroke-width:.5"/><circle cx="44" cy="26.895" r="11" fill="#ADD1B2" style="stroke:#181818;stroke-width:1"/><path d="M46.969 32.535q-.578.297-1.219.438-.64.156-1.344.156-2.5 0-3.828-1.64-1.312-1.657-1.312-4.782t1.312-4.781q1.328-1.656 3.828-1.656.703 0 1.344.156.656.156 1.219.453v2.719q-.625-.578-1.219-.844-.594-.281-1.219-.281-1.343 0-2.031 1.078-.687 1.062-.687 3.156t.687 3.172q.688 1.062 2.031 1.062.625 0 1.219-.265.594-.281 1.219-.86z"/><text x="63" y="32.78" fill="#D9B8FF" font-family="Helvetica" font-size="17" textLength="71">resource</text><path fill="none" d="M85.5 65.05v102.41m0-120.41-6 18h12zm0 178.79v102.41m0-120.41-6 18h12z" style="stroke:#ffaf37;stroke-width:2"/></svg>
